bernoullicharts/sqrt_x__bits.svg

<?xml version="1.0" encoding="utf-8" standalone="no"?>
<!DOCTYPE svg PUBLIC "-//W3C//DTD SVG 1.1//EN"
  "http://www.w3.org/Graphics/SVG/1.1/DTD/svg11.dtd">
<!-- Created with matplotlib (https://matplotlib.org/) -->
<svg height="345.6pt" version="1.1" viewBox="0 0 460.8 345.6" width="460.8pt" xmlns="http://www.w3.org/2000/svg" xmlns:xlink="http://www.w3.org/1999/xlink">
 <defs>
  <style type="text/css">
*{stroke-linecap:butt;stroke-linejoin:round;}
  </style>
 </defs>
 <g id="figure_1">
  <g id="patch_1">
   <path d="M 0 345.6 
L 460.8 345.6 
L 460.8 0 
L 0 0 
z
" style="fill:#ffffff;"/>
  </g>
  <g id="axes_1">
   <g id="patch_2">
    <path d="M 57.6 307.584 
L 414.72 307.584 
L 414.72 41.472 
L 57.6 41.472 
z
" style="fill:#ffffff;"/>
   </g>
   <g id="matplotlib.axis_1">
    <g id="xtick_1">
     <g id="line2d_1">
      <defs>
       <path d="M 0 0 
L 0 3.5 
" id="m4abe8a83a1" style="stroke:#000000;stroke-width:0.8;"/>
      </defs>
      <g>
       <use style="stroke:#000000;stroke-width:0.8;" x="73.800255" xlink:href="#m4abe8a83a1" y="307.584"/>
      </g>
     </g>
     <g id="text_1">
      <text style="font-family:DejaVu Sans;font-size:10px;font-style:normal;font-weight:normal;text-anchor:middle;" transform="rotate(-0, 73.800255, 322.182437)" x="73.800255" y="322.182437">0.0</text>
     </g>
    </g>
    <g id="xtick_2">
     <g id="line2d_2">
      <g>
       <use style="stroke:#000000;stroke-width:0.8;" x="138.744153" xlink:href="#m4abe8a83a1" y="307.584"/>
      </g>
     </g>
     <g id="text_2">
      <text style="font-family:DejaVu Sans;font-size:10px;font-style:normal;font-weight:normal;text-anchor:middle;" transform="rotate(-0, 138.744153, 322.182437)" x="138.744153" y="322.182437">0.2</text>
     </g>
    </g>
    <g id="xtick_3">
     <g id="line2d_3">
      <g>
       <use style="stroke:#000000;stroke-width:0.8;" x="203.688051" xlink:href="#m4abe8a83a1" y="307.584"/>
      </g>
     </g>
     <g id="text_3">
      <text style="font-family:DejaVu Sans;font-size:10px;font-style:normal;font-weight:normal;text-anchor:middle;" transform="rotate(-0, 203.688051, 322.182437)" x="203.688051" y="322.182437">0.4</text>
     </g>
    </g>
    <g id="xtick_4">
     <g id="line2d_4">
      <g>
       <use style="stroke:#000000;stroke-width:0.8;" x="268.631949" xlink:href="#m4abe8a83a1" y="307.584"/>
      </g>
     </g>
     <g id="text_4">
      <text style="font-family:DejaVu Sans;font-size:10px;font-style:normal;font-weight:normal;text-anchor:middle;" transform="rotate(-0, 268.631949, 322.182437)" x="268.631949" y="322.182437">0.6</text>
     </g>
    </g>
    <g id="xtick_5">
     <g id="line2d_5">
      <g>
       <use style="stroke:#000000;stroke-width:0.8;" x="333.575847" xlink:href="#m4abe8a83a1" y="307.584"/>
      </g>
     </g>
     <g id="text_5">
      <text style="font-family:DejaVu Sans;font-size:10px;font-style:normal;font-weight:normal;text-anchor:middle;" transform="rotate(-0, 333.575847, 322.182437)" x="333.575847" y="322.182437">0.8</text>
     </g>
    </g>
    <g id="xtick_6">
     <g id="line2d_6">
      <g>
       <use style="stroke:#000000;stroke-width:0.8;" x="398.519745" xlink:href="#m4abe8a83a1" y="307.584"/>
      </g>
     </g>
     <g id="text_6">
      <text style="font-family:DejaVu Sans;font-size:10px;font-style:normal;font-weight:normal;text-anchor:middle;" transform="rotate(-0, 398.519745, 322.182437)" x="398.519745" y="322.182437">1.0</text>
     </g>
    </g>
    <g id="text_7">
     <text style="font-family:DejaVu Sans;font-size:10px;font-style:normal;font-weight:normal;text-anchor:middle;" transform="rotate(-0, 236.16, 335.860562)" x="236.16" y="335.860562">Probability</text>
    </g>
   </g>
   <g id="matplotlib.axis_2">
    <g id="ytick_1">
     <g id="line2d_7">
      <defs>
       <path d="M 0 0 
L -3.5 0 
" id="m85a0a72285" style="stroke:#000000;stroke-width:0.8;"/>
      </defs>
      <g>
       <use style="stroke:#000000;stroke-width:0.8;" x="57.6" xlink:href="#m85a0a72285" y="297.909905"/>
      </g>
     </g>
     <g id="text_8">
      <text style="font-family:DejaVu Sans;font-size:10px;font-style:normal;font-weight:normal;text-anchor:end;" transform="rotate(-0, 50.6, 301.709123)" x="50.6" y="301.709123">0</text>
     </g>
    </g>
    <g id="ytick_2">
     <g id="line2d_8">
      <g>
       <use style="stroke:#000000;stroke-width:0.8;" x="57.6" xlink:href="#m85a0a72285" y="267.453358"/>
      </g>
     </g>
     <g id="text_9">
      <text style="font-family:DejaVu Sans;font-size:10px;font-style:normal;font-weight:normal;text-anchor:end;" transform="rotate(-0, 50.6, 271.252577)" x="50.6" y="271.252577">25</text>
     </g>
    </g>
    <g id="ytick_3">
     <g id="line2d_9">
      <g>
       <use style="stroke:#000000;stroke-width:0.8;" x="57.6" xlink:href="#m85a0a72285" y="236.996812"/>
      </g>
     </g>
     <g id="text_10">
      <text style="font-family:DejaVu Sans;font-size:10px;font-style:normal;font-weight:normal;text-anchor:end;" transform="rotate(-0, 50.6, 240.796031)" x="50.6" y="240.796031">50</text>
     </g>
    </g>
    <g id="ytick_4">
     <g id="line2d_10">
      <g>
       <use style="stroke:#000000;stroke-width:0.8;" x="57.6" xlink:href="#m85a0a72285" y="206.540266"/>
      </g>
     </g>
     <g id="text_11">
      <text style="font-family:DejaVu Sans;font-size:10px;font-style:normal;font-weight:normal;text-anchor:end;" transform="rotate(-0, 50.6, 210.339485)" x="50.6" y="210.339485">75</text>
     </g>
    </g>
    <g id="ytick_5">
     <g id="line2d_11">
      <g>
       <use style="stroke:#000000;stroke-width:0.8;" x="57.6" xlink:href="#m85a0a72285" y="176.08372"/>
      </g>
     </g>
     <g id="text_12">
      <text style="font-family:DejaVu Sans;font-size:10px;font-style:normal;font-weight:normal;text-anchor:end;" transform="rotate(-0, 50.6, 179.882939)" x="50.6" y="179.882939">100</text>
     </g>
    </g>
    <g id="ytick_6">
     <g id="line2d_12">
      <g>
       <use style="stroke:#000000;stroke-width:0.8;" x="57.6" xlink:href="#m85a0a72285" y="145.627174"/>
      </g>
     </g>
     <g id="text_13">
      <text style="font-family:DejaVu Sans;font-size:10px;font-style:normal;font-weight:normal;text-anchor:end;" transform="rotate(-0, 50.6, 149.426393)" x="50.6" y="149.426393">125</text>
     </g>
    </g>
    <g id="ytick_7">
     <g id="line2d_13">
      <g>
       <use style="stroke:#000000;stroke-width:0.8;" x="57.6" xlink:href="#m85a0a72285" y="115.170628"/>
      </g>
     </g>
     <g id="text_14">
      <text style="font-family:DejaVu Sans;font-size:10px;font-style:normal;font-weight:normal;text-anchor:end;" transform="rotate(-0, 50.6, 118.969847)" x="50.6" y="118.969847">150</text>
     </g>
    </g>
    <g id="ytick_8">
     <g id="line2d_14">
      <g>
       <use style="stroke:#000000;stroke-width:0.8;" x="57.6" xlink:href="#m85a0a72285" y="84.714082"/>
      </g>
     </g>
     <g id="text_15">
      <text style="font-family:DejaVu Sans;font-size:10px;font-style:normal;font-weight:normal;text-anchor:end;" transform="rotate(-0, 50.6, 88.513301)" x="50.6" y="88.513301">175</text>
     </g>
    </g>
    <g id="ytick_9">
     <g id="line2d_15">
      <g>
       <use style="stroke:#000000;stroke-width:0.8;" x="57.6" xlink:href="#m85a0a72285" y="54.257536"/>
      </g>
     </g>
     <g id="text_16">
      <text style="font-family:DejaVu Sans;font-size:10px;font-style:normal;font-weight:normal;text-anchor:end;" transform="rotate(-0, 50.6, 58.056755)" x="50.6" y="58.056755">200</text>
     </g>
    </g>
    <g id="text_17">
     <text style="font-family:DejaVu Sans;font-size:10px;font-style:normal;font-weight:normal;text-anchor:middle;" transform="rotate(-90, 25.432812, 174.528)" x="25.432812" y="174.528">Average Bits Consumed Per Call</text>
    </g>
   </g>
   <g id="line2d_16">
    <path clip-path="url(#p684e53e012)" d="M 73.832727 53.568 
L 77.112066 243.889738 
L 80.391405 263.308832 
L 83.670744 275.457339 
L 86.950083 278.456699 
L 90.229421 277.703814 
L 93.50876 278.734463 
L 96.788099 281.653419 
L 100.067438 283.512486 
L 103.346777 282.725489 
L 106.626116 285.20587 
L 109.905455 286.662911 
L 113.184793 285.727286 
L 116.464132 286.34129 
L 119.743471 288.034674 
L 123.02281 287.306153 
L 126.302149 288.458629 
L 129.581488 288.838727 
L 132.860826 288.560963 
L 136.140165 289.581867 
L 139.419504 289.801154 
L 142.698843 289.664708 
L 145.978182 289.854757 
L 149.257521 290.480944 
L 152.53686 290.0911 
L 155.816198 290.690485 
L 159.095537 290.83424 
L 162.374876 290.573532 
L 165.654215 291.102257 
L 168.933554 291.165607 
L 172.212893 291.553014 
L 175.492231 292.006208 
L 178.77157 291.774738 
L 182.050909 291.523776 
L 185.330248 292.20113 
L 188.609587 292.054938 
L 191.888926 292.050065 
L 195.168264 292.671379 
L 198.447603 292.856554 
L 201.726942 292.656759 
L 205.006281 292.87361 
L 208.28562 292.932087 
L 211.564959 292.905285 
L 214.844298 292.710363 
L 218.123636 293.080715 
L 221.402975 293.334113 
L 224.682314 292.983254 
L 227.961653 293.226906 
L 231.240992 293.129445 
L 234.520331 293.577765 
L 237.799669 293.857966 
L 241.079008 293.192795 
L 244.358347 293.84091 
L 247.637686 293.490051 
L 250.917025 294.067507 
L 254.196364 293.051476 
L 257.475702 293.948117 
L 260.755041 293.882331 
L 264.03438 294.086999 
L 267.313719 293.709338 
L 270.593058 294.316032 
L 273.872397 294.203952 
L 277.151736 294.272175 
L 280.431074 294.162531 
L 283.710413 294.481716 
L 286.989752 294.155222 
L 290.269091 294.35258 
L 293.54843 294.12111 
L 296.827769 294.199079 
L 300.107107 294.735114 
L 303.386446 294.642526 
L 306.665785 294.683947 
L 309.945124 294.771662 
L 313.224463 294.635217 
L 316.503802 294.571867 
L 319.78314 294.63278 
L 323.062479 294.57674 
L 326.341818 294.80821 
L 329.621157 294.793591 
L 332.900496 294.40862 
L 336.179835 295.103029 
L 339.459174 294.966584 
L 342.738512 295.059172 
L 346.017851 294.990949 
L 349.29719 294.898361 
L 352.576529 295.142014 
L 355.855868 295.112775 
L 359.135207 295.129831 
L 362.414545 295.219982 
L 365.693884 295.180998 
L 368.973223 295.222419 
L 372.252562 295.349118 
L 375.531901 295.388103 
L 378.81124 295.100593 
L 382.090579 295.344245 
L 385.369917 295.456325 
L 388.649256 295.390539 
L 391.928595 295.485563 
L 395.207934 295.488 
L 398.487273 295.419777 
" style="fill:none;stroke:#1f77b4;stroke-linecap:square;stroke-width:1.5;"/>
   </g>
   <g id="patch_3">
    <path d="M 57.6 307.584 
L 57.6 41.472 
" style="fill:none;stroke:#000000;stroke-linecap:square;stroke-linejoin:miter;stroke-width:0.8;"/>
   </g>
   <g id="patch_4">
    <path d="M 414.72 307.584 
L 414.72 41.472 
" style="fill:none;stroke:#000000;stroke-linecap:square;stroke-linejoin:miter;stroke-width:0.8;"/>
   </g>
   <g id="patch_5">
    <path d="M 57.6 307.584 
L 414.72 307.584 
" style="fill:none;stroke:#000000;stroke-linecap:square;stroke-linejoin:miter;stroke-width:0.8;"/>
   </g>
   <g id="patch_6">
    <path d="M 57.6 41.472 
L 414.72 41.472 
" style="fill:none;stroke:#000000;stroke-linecap:square;stroke-linejoin:miter;stroke-width:0.8;"/>
   </g>
   <g id="text_18">
    <text style="font-family:DejaVu Sans;font-size:12px;font-style:normal;font-weight:normal;text-anchor:middle;" transform="rotate(-0, 236.16, 35.472)" x="236.16" y="35.472">Avg. Bits Consumed by sqrt(x) Algorithm</text>
   </g>
   <g id="legend_1">
    <g id="patch_7">
     <path d="M 342.409063 64.150125 
L 407.72 64.150125 
Q 409.72 64.150125 409.72 62.150125 
L 409.72 48.472 
Q 409.72 46.472 407.72 46.472 
L 342.409063 46.472 
Q 340.409063 46.472 340.409063 48.472 
L 340.409063 62.150125 
Q 340.409063 64.150125 342.409063 64.150125 
z
" style="fill:#ffffff;opacity:0.8;stroke:#cccccc;stroke-linejoin:miter;"/>
    </g>
    <g id="line2d_17">
     <path d="M 344.409063 54.570438 
L 364.409063 54.570438 
" style="fill:none;stroke:#1f77b4;stroke-linecap:square;stroke-width:1.5;"/>
    </g>
    <g id="line2d_18"/>
    <g id="text_19">
     <text style="font-family:DejaVu Sans;font-size:10px;font-style:normal;font-weight:normal;text-anchor:start;" transform="rotate(-0, 372.409063, 58.070438)" x="372.409063" y="58.070438">sqrt(x)</text>
    </g>
   </g>
  </g>
 </g>
 <defs>
  <clipPath id="p684e53e012">
   <rect height="266.112" width="357.12" x="57.6" y="41.472"/>
  </clipPath>
 </defs>
</svg>

<svg height="460.8" viewBox="0 0 460.8 345.6" width="614.4" xmlns="http://www.w3.org/2000/svg" xmlns:xlink="http://www.w3.org/1999/xlink"><defs><style>*{stroke-linecap:butt;stroke-linejoin:round}</style></defs><g id="figure_1"><path d="M0 345.6h460.8V0H0z" fill="#fff" id="patch_1"/><g id="axes_1"><path d="M57.6 307.584h357.12V41.472H57.6z" fill="#fff" id="patch_2"/><g id="matplotlib.axis_1"><g id="xtick_1"><g id="line2d_1"><defs><path d="M0 0v3.5" id="m4abe8a83a1" stroke="#000" stroke-width=".8"/></defs><use x="73.8" xlink:href="#m4abe8a83a1" y="307.584" stroke="#000" stroke-width=".8"/></g><text x="73.8" y="322.182" font-family="DejaVu Sans" font-size="10" font-weight="400" text-anchor="middle" id="text_1">0.0</text></g><g id="xtick_2"><use x="138.744" xlink:href="#m4abe8a83a1" y="307.584" stroke="#000" stroke-width=".8" id="line2d_2"/><text x="138.744" y="322.182" font-family="DejaVu Sans" font-size="10" font-weight="400" text-anchor="middle" id="text_2">0.2</text></g><g id="xtick_3"><use x="203.688" xlink:href="#m4abe8a83a1" y="307.584" stroke="#000" stroke-width=".8" id="line2d_3"/><text x="203.688" y="322.182" font-family="DejaVu Sans" font-size="10" font-weight="400" text-anchor="middle" id="text_3">0.4</text></g><g id="xtick_4"><use x="268.632" xlink:href="#m4abe8a83a1" y="307.584" stroke="#000" stroke-width=".8" id="line2d_4"/><text x="268.632" y="322.182" font-family="DejaVu Sans" font-size="10" font-weight="400" text-anchor="middle" id="text_4">0.6</text></g><g id="xtick_5"><use x="333.576" xlink:href="#m4abe8a83a1" y="307.584" stroke="#000" stroke-width=".8" id="line2d_5"/><text x="333.576" y="322.182" font-family="DejaVu Sans" font-size="10" font-weight="400" text-anchor="middle" id="text_5">0.8</text></g><g id="xtick_6"><use x="398.52" xlink:href="#m4abe8a83a1" y="307.584" stroke="#000" stroke-width=".8" id="line2d_6"/><text x="398.52" y="322.182" font-family="DejaVu Sans" font-size="10" font-weight="400" text-anchor="middle" id="text_6">1.0</text></g><text x="236.16" y="335.861" font-family="DejaVu Sans" font-size="10" font-weight="400" text-anchor="middle" id="text_7">Probability</text></g><g id="matplotlib.axis_2"><g id="ytick_1"><g id="line2d_7"><defs><path d="M0 0h-3.5" id="m85a0a72285" stroke="#000" stroke-width=".8"/></defs><use x="57.6" xlink:href="#m85a0a72285" y="297.91" stroke="#000" stroke-width=".8"/></g><text x="50.6" y="301.709" font-family="DejaVu Sans" font-size="10" font-weight="400" text-anchor="end" id="text_8">0</text></g><g id="ytick_2"><use x="57.6" xlink:href="#m85a0a72285" y="267.453" stroke="#000" stroke-width=".8" id="line2d_8"/><text x="50.6" y="271.253" font-family="DejaVu Sans" font-size="10" font-weight="400" text-anchor="end" id="text_9">25</text></g><g id="ytick_3"><use x="57.6" xlink:href="#m85a0a72285" y="236.997" stroke="#000" stroke-width=".8" id="line2d_9"/><text x="50.6" y="240.796" font-family="DejaVu Sans" font-size="10" font-weight="400" text-anchor="end" id="text_10">50</text></g><g id="ytick_4"><use x="57.6" xlink:href="#m85a0a72285" y="206.54" stroke="#000" stroke-width=".8" id="line2d_10"/><text x="50.6" y="210.339" font-family="DejaVu Sans" font-size="10" font-weight="400" text-anchor="end" id="text_11">75</text></g><g id="ytick_5"><use x="57.6" xlink:href="#m85a0a72285" y="176.084" stroke="#000" stroke-width=".8" id="line2d_11"/><text x="50.6" y="179.883" font-family="DejaVu Sans" font-size="10" font-weight="400" text-anchor="end" id="text_12">100</text></g><g id="ytick_6"><use x="57.6" xlink:href="#m85a0a72285" y="145.627" stroke="#000" stroke-width=".8" id="line2d_12"/><text x="50.6" y="149.426" font-family="DejaVu Sans" font-size="10" font-weight="400" text-anchor="end" id="text_13">125</text></g><g id="ytick_7"><use x="57.6" xlink:href="#m85a0a72285" y="115.171" stroke="#000" stroke-width=".8" id="line2d_13"/><text x="50.6" y="118.97" font-family="DejaVu Sans" font-size="10" font-weight="400" text-anchor="end" id="text_14">150</text></g><g id="ytick_8"><use x="57.6" xlink:href="#m85a0a72285" y="84.714" stroke="#000" stroke-width=".8" id="line2d_14"/><text x="50.6" y="88.513" font-family="DejaVu Sans" font-size="10" font-weight="400" text-anchor="end" id="text_15">175</text></g><g id="ytick_9"><use x="57.6" xlink:href="#m85a0a72285" y="54.258" stroke="#000" stroke-width=".8" id="line2d_15"/><text x="50.6" y="58.057" font-family="DejaVu Sans" font-size="10" font-weight="400" text-anchor="end" id="text_16">200</text></g><text transform="rotate(-90 25.433 174.528)" x="25.433" y="174.528" font-family="DejaVu Sans" font-size="10" font-weight="400" text-anchor="middle" id="text_17">Average Bits Consumed Per Call</text></g><path clip-path="url(#p684e53e012)" d="M73.833 53.568l3.28 190.322 3.278 19.419 3.28 12.148 3.28 3 3.278-.753 3.28 1.03 3.28 2.92 3.278 1.858 3.28-.787 3.28 2.48 3.278 1.458 3.28-.936 3.28.614 3.278 1.694 3.28-.729 3.28 1.153 3.278.38 3.28-.278 3.28 1.02 3.279.22 3.279-.136 3.28.19 3.279.626 3.279-.39 3.28.6 3.279.143 3.279-.26 3.28.528 3.279.064 3.279.387 3.28.453 3.279-.231 3.279-.251 3.28.677 3.279-.146 3.279-.005 3.28.621 3.279.186 3.279-.2 3.28.217 3.279.058 3.279-.027 3.28-.195 3.279.37 3.279.254 3.28-.35 3.279.243 3.279-.098 3.28.449 3.279.28 3.279-.665 3.28.648 3.279-.35 3.279.577 3.28-1.017 3.279.897 3.279-.066 3.28.205 3.279-.378 3.28.607 3.278-.112 3.28.068 3.28-.11 3.278.32 3.28-.327 3.28.198 3.278-.232 3.28.078 3.28.536 3.278-.092 3.28.04 3.28.089 3.278-.137 3.28-.063 3.28.06 3.278-.055 3.28.231 3.28-.014 3.278-.385 3.28.694 3.28-.136 3.279.092 3.279-.068 3.28-.093 3.279.244 3.279-.03 3.28.018 3.279.09 3.279-.039 3.28.041 3.279.127 3.279.04 3.28-.288 3.279.243 3.279.112 3.28-.065 3.279.095 3.279.002 3.28-.068" fill="none" stroke="#1f77b4" stroke-linecap="square" stroke-width="1.5" id="line2d_16"/><path d="M57.6 307.584V41.472" fill="none" stroke="#000" stroke-linecap="square" stroke-width=".8" id="patch_3"/><path d="M414.72 307.584V41.472" fill="none" stroke="#000" stroke-linecap="square" stroke-width=".8" id="patch_4"/><path d="M57.6 307.584h357.12" fill="none" stroke="#000" stroke-linecap="square" stroke-width=".8" id="patch_5"/><path d="M57.6 41.472h357.12" fill="none" stroke="#000" stroke-linecap="square" stroke-width=".8" id="patch_6"/><text x="236.16" y="35.472" font-family="DejaVu Sans" font-size="12" font-weight="400" text-anchor="middle" id="text_18">Avg. Bits Consumed by sqrt(x) Algorithm</text><g id="legend_1"><path d="M342.41 64.15h65.31q2 0 2-2V48.472q0-2-2-2h-65.31q-2 0-2 2V62.15q0 2 2 2z" fill="#fff" opacity=".8" stroke="#ccc" id="patch_7"/><path d="M344.41 54.57h20" fill="none" stroke="#1f77b4" stroke-linecap="square" stroke-width="1.5" id="line2d_17"/><text x="372.409" y="58.07" font-family="DejaVu Sans" font-size="10" font-weight="400" id="text_19">sqrt(x)</text></g></g></g><defs><clipPath id="p684e53e012"><path d="M57.6 41.472h357.12v266.112H57.6z"/></clipPath></defs></svg>
